X: 16
T: Orielton House
C: Unknown
R: Orielton House
I: abc2nwc
M: 2/2
L: 1/8
B: John Playford's "The Dancing Master" 1728
F: http://sosyourmom.com/xplayford/0015.ABC
K: D
Bc \
| d2A2A2d2 | c2A2A2d2 | e2f2g2ag | fgef d2A/2B/2c \
| d2A2A2d2 | c2A2A2d2 | e2f2gfef | d6 :|
|: fg \
| a2e2e2f2 | e3d c2e2 | d2c2B2A2 | ^G6E2 \
| A3B c2d2 | e2d2df e2 | d2c2B3A | A6A2 |
| d2A2A2dc | B2B2B2cd | efef gfed | (c2c3)efg \
| agfe d2f2 | edcB A2fg | a2ef gfef | d6 :|
%%sep 1 1 500
